images/icons/math.svg

<?xml version="1.0" encoding="UTF-8" standalone="no"?>
<svg
   xmlns:dc="http://purl.org/dc/elements/1.1/"
   xmlns:cc="http://creativecommons.org/ns#"
   xmlns:rdf="http://www.w3.org/1999/02/22-rdf-syntax-ns#"
   xmlns:svg="http://www.w3.org/2000/svg"
   xmlns="http://www.w3.org/2000/svg"
   xmlns:sodipodi="http://sodipodi.sourceforge.net/DTD/sodipodi-0.dtd"
   xmlns:inkscape="http://www.inkscape.org/namespaces/inkscape"
   width="48px"
   height="48px"
   viewBox="0 0 48 48"
   version="1.1"
   id="svg2"
   inkscape:version="0.91 r13725"
   sodipodi:docname="math.svg">
  <metadata
     id="metadata64">
    <rdf:RDF>
      <cc:Work
         rdf:about="">
        <dc:format>image/svg+xml</dc:format>
        <dc:type
           rdf:resource="http://purl.org/dc/dcmitype/StillImage" />
      </cc:Work>
    </rdf:RDF>
  </metadata>
  <sodipodi:namedview
     pagecolor="#ffffff"
     bordercolor="#666666"
     borderopacity="1"
     objecttolerance="10"
     gridtolerance="10"
     guidetolerance="10"
     inkscape:pageopacity="0"
     inkscape:pageshadow="2"
     inkscape:window-width="622"
     inkscape:window-height="982"
     id="namedview62"
     showgrid="true"
     inkscape:zoom="9.8333333"
     inkscape:cx="25.103352"
     inkscape:cy="22.519663"
     inkscape:window-x="648"
     inkscape:window-y="32"
     inkscape:window-maximized="0"
     inkscape:current-layer="svg2">
    <inkscape:grid
       type="xygrid"
       id="grid3417" />
  </sodipodi:namedview>
  <defs
     id="defs4">
    <linearGradient
       id="linear0"
       gradientUnits="userSpaceOnUse"
       x1="1"
       y1="0"
       x2="47"
       y2="0"
       gradientTransform="matrix(0,-1,1,0,0.00221467,48.000001)">
      <stop
         offset="0"
         style="stop-color:rgb(87.843137%,29.803922%,54.509804%);stop-opacity:1;"
         id="stop7" />
      <stop
         offset="1"
         style="stop-color:rgb(89.019608%,36.862745%,59.215686%);stop-opacity:1;"
         id="stop9" />
    </linearGradient>
  </defs>
  <path
     inkscape:connector-curvature="0"
     id="path18"
     d="M 1,43 1,5 C 1,2.789062 2.789062,1 5,1 l 38,0 c 2.210938,0 4,1.789062 4,4 l 0,38 c 0,2.210938 -1.789062,4 -4,4 L 5,47 C 2.789062,47 1,45.210938 1,43 Z m 0,0"
     style="fill:#e35d96;fill-rule:nonzero;stroke:none;fill-opacity:1" />
  <path
     inkscape:connector-curvature="0"
     id="path22"
     d="m 15.441406,32 3.113282,0 C 18.800781,32 19,32.199219 19,32.441406 l 0,3.117188 C 19,35.800781 18.800781,36 18.554688,36 l -3.113282,0 C 15.195312,36 15,35.800781 15,35.558594 l 0,-3.117188 C 15,32.199219 15.195312,32 15.441406,32 m 0,0"
     style="fill:#000000;fill-opacity:0.10196102;fill-rule:nonzero;stroke:none" />
  <path
     inkscape:connector-curvature="0"
     id="path24"
     d="m 15.441406,26.019531 3.113282,0 C 18.800781,26.019531 19,26.21875 19,26.460938 l 0,3.117187 c 0,0.242187 -0.199219,0.441406 -0.445312,0.441406 l -3.113282,0 C 15.195312,30.019531 15,29.820312 15,29.578125 l 0,-3.117187 c 0,-0.242188 0.195312,-0.441407 0.441406,-0.441407 m 0,0"
     style="fill:#000000;fill-opacity:0.10196102;fill-rule:nonzero;stroke:none" />
  <path
     inkscape:connector-curvature="0"
     id="path26"
     d="m 15.441406,20 3.113282,0 C 18.800781,20 19,20.199219 19,20.441406 l 0,3.117188 C 19,23.800781 18.800781,24 18.554688,24 l -3.113282,0 C 15.195312,24 15,23.800781 15,23.558594 l 0,-3.117188 C 15,20.199219 15.195312,20 15.441406,20 m 0,0"
     style="fill:#000000;fill-opacity:0.10196102;fill-rule:nonzero;stroke:none" />
  <path
     inkscape:connector-curvature="0"
     id="path28"
     d="m 15.441406,14 17.109375,0 c 0.246094,0 0.445313,0.199219 0.445313,0.441406 l 0,3.117188 C 32.996094,17.800781 32.796875,18 32.550781,18 L 15.441406,18 C 15.195312,18 15,17.800781 15,17.558594 l 0,-3.117188 C 15,14.199219 15.195312,14 15.441406,14 m 0,0"
     style="fill:#000000;fill-opacity:0.10196102;fill-rule:nonzero;stroke:none" />
  <path
     inkscape:connector-curvature="0"
     id="path30"
     d="m 22.441406,32 3.117188,0 C 25.800781,32 26,32.199219 26,32.441406 l 0,3.117188 C 26,35.800781 25.800781,36 25.558594,36 l -3.117188,0 C 22.199219,36 22,35.800781 22,35.558594 l 0,-3.117188 C 22,32.199219 22.199219,32 22.441406,32 m 0,0"
     style="fill:#000000;fill-opacity:0.10196102;fill-rule:nonzero;stroke:none" />
  <path
     inkscape:connector-curvature="0"
     id="path32"
     d="m 22.441406,26.019531 3.117188,0 C 25.800781,26.019531 26,26.21875 26,26.460938 l 0,3.117187 c 0,0.242187 -0.199219,0.441406 -0.441406,0.441406 l -3.117188,0 C 22.199219,30.019531 22,29.820312 22,29.578125 l 0,-3.117187 c 0,-0.242188 0.199219,-0.441407 0.441406,-0.441407 m 0,0"
     style="fill:#000000;fill-opacity:0.10196102;fill-rule:nonzero;stroke:none" />
  <path
     inkscape:connector-curvature="0"
     id="path34"
     d="m 22.441406,20 3.117188,0 C 25.800781,20 26,20.199219 26,20.441406 l 0,3.117188 C 26,23.800781 25.800781,24 25.558594,24 l -3.117188,0 C 22.199219,24 22,23.800781 22,23.558594 l 0,-3.117188 C 22,20.199219 22.199219,20 22.441406,20 m 0,0"
     style="fill:#000000;fill-opacity:0.10196102;fill-rule:nonzero;stroke:none" />
  <path
     inkscape:connector-curvature="0"
     id="path36"
     d="m 29.441406,20 3.113282,0 C 32.800781,20 33,20.199219 33,20.441406 l 0,3.117188 C 33,23.800781 32.800781,24 32.554688,24 l -3.113282,0 C 29.195312,24 29,23.800781 29,23.558594 l 0,-3.117188 C 29,20.199219 29.195312,20 29.441406,20 m 0,0"
     style="fill:#000000;fill-opacity:0.10196102;fill-rule:nonzero;stroke:none" />
  <path
     inkscape:connector-curvature="0"
     id="path38"
     d="m 29.441406,26.019531 3.113282,0 C 32.800781,26.019531 33,26.21875 33,26.460938 l 0,9.113281 c 0,0.246093 -0.199219,0.445312 -0.445312,0.445312 l -3.113282,0 C 29.195312,36.019531 29,35.820312 29,35.574219 l 0,-9.113281 c 0,-0.242188 0.195312,-0.441407 0.441406,-0.441407 m 0,0"
     style="fill:#000000;fill-opacity:0.10196102;fill-rule:nonzero;stroke:none" />
  <path
     inkscape:connector-curvature="0"
     id="path40"
     d="m 13.886719,11 20.226562,0 C 34.605469,11 35,11.394531 35,11.882812 l 0,24.230469 C 35,36.601562 34.605469,37 34.113281,37 L 13.886719,37 C 13.398438,37 13,36.601562 13,36.113281 L 13,11.882812 C 13,11.394531 13.398438,11 13.886719,11 m 0,0"
     style="fill:#e8e8e8;fill-opacity:1;fill-rule:nonzero;stroke:none" />
  <path
     inkscape:connector-curvature="0"
     id="path42"
     d="m 15.441406,31 3.113282,0 C 18.800781,31 19,31.199219 19,31.441406 l 0,3.117188 C 19,34.800781 18.800781,35 18.554688,35 l -3.113282,0 C 15.195312,35 15,34.800781 15,34.558594 l 0,-3.117188 C 15,31.199219 15.195312,31 15.441406,31 m 0,0"
     style="fill:#949999;fill-opacity:1;fill-rule:nonzero;stroke:none" />
  <path
     inkscape:connector-curvature="0"
     id="path44"
     d="m 15.441406,25.019531 3.113282,0 C 18.800781,25.019531 19,25.21875 19,25.460938 l 0,3.117187 c 0,0.242187 -0.199219,0.441406 -0.445312,0.441406 l -3.113282,0 C 15.195312,29.019531 15,28.820312 15,28.578125 l 0,-3.117187 c 0,-0.242188 0.195312,-0.441407 0.441406,-0.441407 m 0,0"
     style="fill:#949999;fill-opacity:1;fill-rule:nonzero;stroke:none" />
  <path
     inkscape:connector-curvature="0"
     id="path46"
     d="m 15.441406,19 3.113282,0 C 18.800781,19 19,19.199219 19,19.441406 l 0,3.117188 C 19,22.800781 18.800781,23 18.554688,23 l -3.113282,0 C 15.195312,23 15,22.800781 15,22.558594 l 0,-3.117188 C 15,19.199219 15.195312,19 15.441406,19 m 0,0"
     style="fill:#949999;fill-opacity:1;fill-rule:nonzero;stroke:none" />
  <path
     inkscape:connector-curvature="0"
     id="path48"
     d="m 15.441406,13 17.109375,0 c 0.246094,0 0.445313,0.199219 0.445313,0.441406 l 0,3.117188 C 32.996094,16.800781 32.796875,17 32.550781,17 L 15.441406,17 C 15.195312,17 15,16.800781 15,16.558594 l 0,-3.117188 C 15,13.199219 15.195312,13 15.441406,13 m 0,0"
     style="fill:#75a1cf;fill-opacity:1;fill-rule:nonzero;stroke:none" />
  <path
     inkscape:connector-curvature="0"
     id="path50"
     d="m 22.441406,31 3.117188,0 C 25.800781,31 26,31.199219 26,31.441406 l 0,3.117188 C 26,34.800781 25.800781,35 25.558594,35 l -3.117188,0 C 22.199219,35 22,34.800781 22,34.558594 l 0,-3.117188 C 22,31.199219 22.199219,31 22.441406,31 m 0,0"
     style="fill:#949999;fill-opacity:1;fill-rule:nonzero;stroke:none" />
  <path
     inkscape:connector-curvature="0"
     id="path52"
     d="m 22.441406,25.019531 3.117188,0 C 25.800781,25.019531 26,25.21875 26,25.460938 l 0,3.117187 c 0,0.242187 -0.199219,0.441406 -0.441406,0.441406 l -3.117188,0 C 22.199219,29.019531 22,28.820312 22,28.578125 l 0,-3.117187 c 0,-0.242188 0.199219,-0.441407 0.441406,-0.441407 m 0,0"
     style="fill:#949999;fill-opacity:1;fill-rule:nonzero;stroke:none" />
  <path
     inkscape:connector-curvature="0"
     id="path54"
     d="m 22.441406,19 3.117188,0 C 25.800781,19 26,19.199219 26,19.441406 l 0,3.117188 C 26,22.800781 25.800781,23 25.558594,23 l -3.117188,0 C 22.199219,23 22,22.800781 22,22.558594 l 0,-3.117188 C 22,19.199219 22.199219,19 22.441406,19 m 0,0"
     style="fill:#949999;fill-opacity:1;fill-rule:nonzero;stroke:none" />
  <path
     inkscape:connector-curvature="0"
     id="path56"
     d="m 29.441406,19 3.113282,0 C 32.800781,19 33,19.199219 33,19.441406 l 0,3.117188 C 33,22.800781 32.800781,23 32.554688,23 l -3.113282,0 C 29.195312,23 29,22.800781 29,22.558594 l 0,-3.117188 C 29,19.199219 29.195312,19 29.441406,19 m 0,0"
     style="fill:#949999;fill-opacity:1;fill-rule:nonzero;stroke:none" />
  <path
     inkscape:connector-curvature="0"
     id="path58"
     d="m 29.441406,25.019531 3.113282,0 C 32.800781,25.019531 33,25.21875 33,25.460938 l 0,9.113281 c 0,0.246093 -0.199219,0.445312 -0.445312,0.445312 l -3.113282,0 C 29.195312,35.019531 29,34.820312 29,34.574219 l 0,-9.113281 c 0,-0.242188 0.195312,-0.441407 0.441406,-0.441407 m 0,0"
     style="fill:#eb7d1e;fill-opacity:1;fill-rule:nonzero;stroke:none" />
</svg>

<svg xmlns="http://www.w3.org/2000/svg" xmlns:xlink="http://www.w3.org/1999/xlink" width="48px" height="48px" viewBox="0 0 48 48" version="1.1">
<defs>
<linearGradient id="linear0" gradientUnits="userSpaceOnUse" x1="1" y1="0" x2="47" y2="0" gradientTransform="matrix(0,-1,1,0,0.00221467,48.000001)">
<stop offset="0" style="stop-color:rgb(87.843137%,29.803922%,54.509804%);stop-opacity:1;"/>
<stop offset="1" style="stop-color:rgb(89.019608%,36.862745%,59.215686%);stop-opacity:1;"/>
</linearGradient>
</defs>
<g id="surface1">
<path style=" stroke:none;fill-rule:nonzero;fill:rgb(0%,0%,0%);fill-opacity:0.0196078;" d="M 1 43 L 1 43.25 C 1 45.464844 2.785156 47.25 5 47.25 L 43 47.25 C 45.214844 47.25 47 45.464844 47 43.25 L 47 43 C 47 45.214844 45.214844 47 43 47 L 5 47 C 2.785156 47 1 45.214844 1 43 Z M 1 43.5 L 1 44 C 1 46.214844 2.785156 48 5 48 L 43 48 C 45.214844 48 47 46.214844 47 44 L 47 43.5 C 47 45.714844 45.214844 47.5 43 47.5 L 5 47.5 C 2.785156 47.5 1 45.714844 1 43.5 Z M 1 43.5 "/>
<path style=" stroke:none;fill-rule:nonzero;fill:rgb(0%,0%,0%);fill-opacity:0.0509804;" d="M 1 43.25 L 1 43.5 C 1 45.714844 2.785156 47.5 5 47.5 L 43 47.5 C 45.214844 47.5 47 45.714844 47 43.5 L 47 43.25 C 47 45.464844 45.214844 47.25 43 47.25 L 5 47.25 C 2.785156 47.25 1 45.464844 1 43.25 Z M 1 43.25 "/>
<path style=" stroke:none;fill-rule:nonzero;fill:rgb(0%,0%,0%);fill-opacity:0.101961;" d="M 1 43 L 1 43.25 C 1 45.464844 2.785156 47.25 5 47.25 L 43 47.25 C 45.214844 47.25 47 45.464844 47 43.25 L 47 43 C 47 45.214844 45.214844 47 43 47 L 5 47 C 2.785156 47 1 45.214844 1 43 Z M 1 43 "/>
<path style=" stroke:none;fill-rule:nonzero;fill:url(#linear0);" d="M 1 43 L 1 5 C 1 2.789062 2.789062 1 5 1 L 43 1 C 45.210938 1 47 2.789062 47 5 L 47 43 C 47 45.210938 45.210938 47 43 47 L 5 47 C 2.789062 47 1 45.210938 1 43 Z M 1 43 "/>
<path style=" stroke:none;fill-rule:nonzero;fill:rgb(0%,0%,0%);fill-opacity:0.101961;" d="M 13.886719 11 L 34.113281 11 C 34.605469 11 35 11.394531 35 11.882812 L 35 36.113281 C 35 36.601562 34.605469 37 34.113281 37 L 13.886719 37 C 13.398438 37 13 36.601562 13 36.113281 L 13 11.882812 C 13 11.394531 13.398438 11 13.886719 11 M 13.886719 11 "/>
<path style=" stroke:none;fill-rule:nonzero;fill:rgb(0%,0%,0%);fill-opacity:0.101961;" d="M 15.441406 31 L 18.554688 31 C 18.800781 31 19 31.199219 19 31.441406 L 19 34.558594 C 19 34.800781 18.800781 35 18.554688 35 L 15.441406 35 C 15.195312 35 15 34.800781 15 34.558594 L 15 31.441406 C 15 31.199219 15.195312 31 15.441406 31 M 15.441406 31 "/>
<path style=" stroke:none;fill-rule:nonzero;fill:rgb(0%,0%,0%);fill-opacity:0.101961;" d="M 15.441406 25.019531 L 18.554688 25.019531 C 18.800781 25.019531 19 25.21875 19 25.460938 L 19 28.578125 C 19 28.820312 18.800781 29.019531 18.554688 29.019531 L 15.441406 29.019531 C 15.195312 29.019531 15 28.820312 15 28.578125 L 15 25.460938 C 15 25.21875 15.195312 25.019531 15.441406 25.019531 M 15.441406 25.019531 "/>
<path style=" stroke:none;fill-rule:nonzero;fill:rgb(0%,0%,0%);fill-opacity:0.101961;" d="M 15.441406 19 L 18.554688 19 C 18.800781 19 19 19.199219 19 19.441406 L 19 22.558594 C 19 22.800781 18.800781 23 18.554688 23 L 15.441406 23 C 15.195312 23 15 22.800781 15 22.558594 L 15 19.441406 C 15 19.199219 15.195312 19 15.441406 19 M 15.441406 19 "/>
<path style=" stroke:none;fill-rule:nonzero;fill:rgb(0%,0%,0%);fill-opacity:0.101961;" d="M 15.441406 13 L 32.550781 13 C 32.796875 13 32.996094 13.199219 32.996094 13.441406 L 32.996094 16.558594 C 32.996094 16.800781 32.796875 17 32.550781 17 L 15.441406 17 C 15.195312 17 15 16.800781 15 16.558594 L 15 13.441406 C 15 13.199219 15.195312 13 15.441406 13 M 15.441406 13 "/>
<path style=" stroke:none;fill-rule:nonzero;fill:rgb(0%,0%,0%);fill-opacity:0.101961;" d="M 22.441406 31 L 25.558594 31 C 25.800781 31 26 31.199219 26 31.441406 L 26 34.558594 C 26 34.800781 25.800781 35 25.558594 35 L 22.441406 35 C 22.199219 35 22 34.800781 22 34.558594 L 22 31.441406 C 22 31.199219 22.199219 31 22.441406 31 M 22.441406 31 "/>
<path style=" stroke:none;fill-rule:nonzero;fill:rgb(0%,0%,0%);fill-opacity:0.101961;" d="M 22.441406 25.019531 L 25.558594 25.019531 C 25.800781 25.019531 26 25.21875 26 25.460938 L 26 28.578125 C 26 28.820312 25.800781 29.019531 25.558594 29.019531 L 22.441406 29.019531 C 22.199219 29.019531 22 28.820312 22 28.578125 L 22 25.460938 C 22 25.21875 22.199219 25.019531 22.441406 25.019531 M 22.441406 25.019531 "/>
<path style=" stroke:none;fill-rule:nonzero;fill:rgb(0%,0%,0%);fill-opacity:0.101961;" d="M 22.441406 19 L 25.558594 19 C 25.800781 19 26 19.199219 26 19.441406 L 26 22.558594 C 26 22.800781 25.800781 23 25.558594 23 L 22.441406 23 C 22.199219 23 22 22.800781 22 22.558594 L 22 19.441406 C 22 19.199219 22.199219 19 22.441406 19 M 22.441406 19 "/>
<path style=" stroke:none;fill-rule:nonzero;fill:rgb(0%,0%,0%);fill-opacity:0.101961;" d="M 29.441406 19 L 32.554688 19 C 32.800781 19 33 19.199219 33 19.441406 L 33 22.558594 C 33 22.800781 32.800781 23 32.554688 23 L 29.441406 23 C 29.195312 23 29 22.800781 29 22.558594 L 29 19.441406 C 29 19.199219 29.195312 19 29.441406 19 M 29.441406 19 "/>
<path style=" stroke:none;fill-rule:nonzero;fill:rgb(0%,0%,0%);fill-opacity:0.101961;" d="M 29.441406 25.019531 L 32.554688 25.019531 C 32.800781 25.019531 33 25.21875 33 25.460938 L 33 34.574219 C 33 34.820312 32.800781 35.019531 32.554688 35.019531 L 29.441406 35.019531 C 29.195312 35.019531 29 34.820312 29 34.574219 L 29 25.460938 C 29 25.21875 29.195312 25.019531 29.441406 25.019531 M 29.441406 25.019531 "/>
<path style=" stroke:none;fill-rule:nonzero;fill:rgb(91.764706%,91.764706%,91.764706%);fill-opacity:1;" d="M 13.886719 10 L 34.113281 10 C 34.605469 10 35 10.394531 35 10.882812 L 35 35.113281 C 35 35.601562 34.605469 36 34.113281 36 L 13.886719 36 C 13.398438 36 13 35.601562 13 35.113281 L 13 10.882812 C 13 10.394531 13.398438 10 13.886719 10 M 13.886719 10 "/>
<path style=" stroke:none;fill-rule:nonzero;fill:rgb(58.431373%,60.392157%,60.784314%);fill-opacity:1;" d="M 15.441406 30 L 18.554688 30 C 18.800781 30 19 30.199219 19 30.441406 L 19 33.558594 C 19 33.800781 18.800781 34 18.554688 34 L 15.441406 34 C 15.195312 34 15 33.800781 15 33.558594 L 15 30.441406 C 15 30.199219 15.195312 30 15.441406 30 M 15.441406 30 "/>
<path style=" stroke:none;fill-rule:nonzero;fill:rgb(58.431373%,60.392157%,60.784314%);fill-opacity:1;" d="M 15.441406 24.019531 L 18.554688 24.019531 C 18.800781 24.019531 19 24.21875 19 24.460938 L 19 27.578125 C 19 27.820312 18.800781 28.019531 18.554688 28.019531 L 15.441406 28.019531 C 15.195312 28.019531 15 27.820312 15 27.578125 L 15 24.460938 C 15 24.21875 15.195312 24.019531 15.441406 24.019531 M 15.441406 24.019531 "/>
<path style=" stroke:none;fill-rule:nonzero;fill:rgb(58.431373%,60.392157%,60.784314%);fill-opacity:1;" d="M 15.441406 18 L 18.554688 18 C 18.800781 18 19 18.199219 19 18.441406 L 19 21.558594 C 19 21.800781 18.800781 22 18.554688 22 L 15.441406 22 C 15.195312 22 15 21.800781 15 21.558594 L 15 18.441406 C 15 18.199219 15.195312 18 15.441406 18 M 15.441406 18 "/>
<path style=" stroke:none;fill-rule:nonzero;fill:rgb(46.27451%,63.921569%,81.176471%);fill-opacity:1;" d="M 15.441406 12 L 32.550781 12 C 32.796875 12 32.996094 12.199219 32.996094 12.441406 L 32.996094 15.558594 C 32.996094 15.800781 32.796875 16 32.550781 16 L 15.441406 16 C 15.195312 16 15 15.800781 15 15.558594 L 15 12.441406 C 15 12.199219 15.195312 12 15.441406 12 M 15.441406 12 "/>
<path style=" stroke:none;fill-rule:nonzero;fill:rgb(58.431373%,60.392157%,60.784314%);fill-opacity:1;" d="M 22.441406 30 L 25.558594 30 C 25.800781 30 26 30.199219 26 30.441406 L 26 33.558594 C 26 33.800781 25.800781 34 25.558594 34 L 22.441406 34 C 22.199219 34 22 33.800781 22 33.558594 L 22 30.441406 C 22 30.199219 22.199219 30 22.441406 30 M 22.441406 30 "/>
<path style=" stroke:none;fill-rule:nonzero;fill:rgb(58.431373%,60.392157%,60.784314%);fill-opacity:1;" d="M 22.441406 24.019531 L 25.558594 24.019531 C 25.800781 24.019531 26 24.21875 26 24.460938 L 26 27.578125 C 26 27.820312 25.800781 28.019531 25.558594 28.019531 L 22.441406 28.019531 C 22.199219 28.019531 22 27.820312 22 27.578125 L 22 24.460938 C 22 24.21875 22.199219 24.019531 22.441406 24.019531 M 22.441406 24.019531 "/>
<path style=" stroke:none;fill-rule:nonzero;fill:rgb(58.431373%,60.392157%,60.784314%);fill-opacity:1;" d="M 22.441406 18 L 25.558594 18 C 25.800781 18 26 18.199219 26 18.441406 L 26 21.558594 C 26 21.800781 25.800781 22 25.558594 22 L 22.441406 22 C 22.199219 22 22 21.800781 22 21.558594 L 22 18.441406 C 22 18.199219 22.199219 18 22.441406 18 M 22.441406 18 "/>
<path style=" stroke:none;fill-rule:nonzero;fill:rgb(58.431373%,60.392157%,60.784314%);fill-opacity:1;" d="M 29.441406 18 L 32.554688 18 C 32.800781 18 33 18.199219 33 18.441406 L 33 21.558594 C 33 21.800781 32.800781 22 32.554688 22 L 29.441406 22 C 29.195312 22 29 21.800781 29 21.558594 L 29 18.441406 C 29 18.199219 29.195312 18 29.441406 18 M 29.441406 18 "/>
<path style=" stroke:none;fill-rule:nonzero;fill:rgb(92.54902%,49.803922%,12.54902%);fill-opacity:1;" d="M 29.441406 24.019531 L 32.554688 24.019531 C 32.800781 24.019531 33 24.21875 33 24.460938 L 33 33.574219 C 33 33.820312 32.800781 34.019531 32.554688 34.019531 L 29.441406 34.019531 C 29.195312 34.019531 29 33.820312 29 33.574219 L 29 24.460938 C 29 24.21875 29.195312 24.019531 29.441406 24.019531 M 29.441406 24.019531 "/>
<path style=" stroke:none;fill-rule:nonzero;fill:rgb(0%,0%,0%);fill-opacity:0.101961;" d="M 1 38.996094 L 1 42.996094 C 1 45.214844 2.785156 46.996094 5 46.996094 L 43 46.996094 C 45.214844 46.996094 47 45.214844 47 42.996094 L 47 38.996094 C 47 41.214844 45.214844 42.996094 43 42.996094 L 5 42.996094 C 2.785156 42.996094 1 41.214844 1 38.996094 Z M 1 38.996094 "/>
</g>
</svg>
